X: 1207
T: An Draigheann
R: waltz
M: 3/4
K: Dmajor
|:dd cA|B2 A2|G2 BA|A2 A2|
dd cA|B2 A2|DE F2|ED D2:|
A|c2 d2|e2 ge|fg ed|c>A BA|A2 A2|
c2 d2|e2 ge|f>g ab|a2 A2|
c2 d2|e2 ge|fg ed|c>A BA|A2 A2|
|:dd cA|B2 A2|DE FG|ED D2||

